src/lib/packages/icons/src/assets/filled/eject.svg

<svg width="24" height="24" viewBox="0 0 24 24" fill="none" xmlns="http://www.w3.org/2000/svg">
<path d="M13.5129 3.696L19.509 10.6731C20.629 11.9761 19.7089 14 17.9969 14H6.00403C4.29203 14 3.37194 11.9761 4.49194 10.6731L10.489 3.696C11.285 2.768 12.7149 2.768 13.5129 3.696ZM4 18.1999V19.8C4 20.6 4.39995 21 5.19995 21H18.8C19.6 21 20 20.6 20 19.8V18.1999C20 17.3999 19.6 17 18.8 17H5.19995C4.39995 17 4 17.3999 4 18.1999Z" fill="currentColor"/>
</svg>

<svg xmlns="http://www.w3.org/2000/svg" width="24" height="24" fill="none"><path fill="currentColor" d="m13.513 3.696 5.996 6.977c1.12 1.303.2 3.327-1.512 3.327H6.004c-1.712 0-2.632-2.024-1.512-3.327l5.997-6.977a1.99 1.99 0 0 1 3.024 0ZM4 18.2v1.6c0 .8.4 1.2 1.2 1.2h13.6c.8 0 1.2-.4 1.2-1.2v-1.6c0-.8-.4-1.2-1.2-1.2H5.2c-.8 0-1.2.4-1.2 1.2Z"/></svg>
